2-ui/99-ui-misc/03-event-loop/eventLoop.svg

<?xml version="1.0" encoding="UTF-8"?>
<svg width="479px" height="279px" viewBox="0 0 479 279" version="1.1" xmlns="http://www.w3.org/2000/svg" xmlns:xlink="http://www.w3.org/1999/xlink">
    <!-- Generator: sketchtool 61.2 (101010) - https://sketch.com -->
    <title>eventLoop.svg</title>
    <desc>Created with sketchtool.</desc>
    <g id="promise" stroke="none" stroke-width="1" fill="none" fill-rule="evenodd">
        <g id="eventLoop.svg">
            <rect id="Rectangle-1-Copy-5" stroke="#E8C48E" stroke-width="2" fill="#FFF9EB" x="218" y="173" width="108" height="28"></rect>
            <text id="..." font-family="PTMono-Regular, PT Mono" font-size="14" font-weight="normal" line-spacing="20" fill="#8A704D">
                <tspan x="258.9" y="189">...</tspan>
            </text>
            <rect id="Rectangle-1-Copy-6" stroke="#E8C48E" stroke-width="2" fill="#FFF9EB" x="218" y="90" width="108" height="28"></rect>
            <rect id="Rectangle-1-Copy-8" stroke="#E8C48E" stroke-width="2" fill="#FFF9EB" x="218" y="117" width="108" height="28"></rect>
            <text id="mousemove" font-family="PTMono-Regular, PT Mono" font-size="14" font-weight="normal" line-spacing="20" fill="#8A704D">
                <tspan x="233.7" y="136">mousemove</tspan>
            </text>
            <rect id="Rectangle-1-Copy-9" stroke="#E8C48E" stroke-width="2" fill="#FFF9EB" x="218" y="145" width="108" height="28"></rect>
            <text id="script" font-family="PTMono-Regular, PT Mono" font-size="14" font-weight="normal" line-spacing="20" fill="#8A704D">
                <tspan x="246.8" y="109">script</tspan>
            </text>
            <text id="event-loop" font-family="Helvetica" font-size="24" font-weight="normal" fill="#000000">
                <tspan x="71.1445312" y="131">event</tspan>
                <tspan x="77.8125" y="160">loop</tspan>
            </text>
            <text id="macrotask-queue" font-family="Helvetica" font-size="24" font-weight="normal" fill="#9B9B9B">
                <tspan x="348.152344" y="133">macrotask</tspan>
                <tspan x="370.130859" y="162">queue</tspan>
            </text>
            <path id="Path" d="M192,40 C214.46672,40 235.818345,47.3586153 253.284652,60.7115305 L253.906792,61.1909666 L254.049591,61.3130651 L263.011,69.735 L258.427178,55.1253877 L262.243758,53.9280087 L269.112807,75.8227264 L270.177144,79.2152421 L266.725204,78.3631317 L244.446978,72.8637563 L245.405602,68.9803249 L260.27,72.649 L251.384,64.297 L250.833544,63.8726766 C234.269748,51.217064 214.076691,44.1751702 192.798438,44.0032252 L192,44 C161.251951,44 132.905162,58.4027651 114.685425,82.4123187 L114.136419,83.1428166 L110.927659,80.7545412 C129.87093,55.303369 159.663534,40 192,40 Z" fill="#EE6B47" fill-rule="nonzero"></path>
            <path id="Path-Copy-2" d="M269.882343,208.148251 L272.704986,210.98245 L272.339268,211.347243 C271.250082,212.435426 270.201605,213.499024 268.357381,215.379834 C268.190501,215.550029 268.190501,215.550029 268.02357,215.72028 C258.101872,225.839116 253.233892,230.264312 246.007006,234.992038 C230.82183,244.925965 211.996447,250.679687 194.412852,250.679687 C169.191046,250.679687 147.269018,243.853492 130.335918,231.006684 L129.747255,230.556099 L129.658358,230.487449 L129.577707,230.409278 L120.724,221.828 L125.083129,236.507247 L121.248579,237.645767 L114.71719,215.647961 L113.705173,212.239473 L117.143594,213.14459 L139.334576,218.986062 L138.316319,222.854285 L123.508,218.956 L132.274,227.453 L132.762181,227.82653 C148.781359,239.976592 169.544099,246.524577 193.553978,246.676966 L194.412852,246.679687 C211.208683,246.679687 229.275076,241.15794 243.817212,231.644681 C250.728173,227.123628 255.441499,222.839019 265.167458,212.919811 C265.334351,212.7496 265.334351,212.7496 265.501312,212.579321 C267.561111,210.478661 268.636053,209.389458 269.882343,208.148251 Z" fill="#EE6B47" fill-rule="nonzero"></path>
            <text id="setTimeout" font-family="PTMono-Regular, PT Mono" font-size="14" font-weight="normal" line-spacing="20" fill="#8A704D">
                <tspan x="230" y="164">setTimeout</tspan>
            </text>
        </g>
    </g>
</svg>

<svg xmlns="http://www.w3.org/2000/svg" width="479" height="279" viewBox="0 0 479 279"><defs><style>@import url(https://fonts.googleapis.com/css?family=Open+Sans:bold,italic,bolditalic%7CPT+Mono);@font-face{font-family:&apos;PT Mono&apos;;font-weight:700;font-style:normal;src:local(&apos;PT MonoBold&apos;),url(/font/PTMonoBold.woff2) format(&apos;woff2&apos;),url(/font/PTMonoBold.woff) format(&apos;woff&apos;),url(/font/PTMonoBold.ttf) format(&apos;truetype&apos;)}</style></defs><g id="promise" fill="none" fill-rule="evenodd" stroke="none" stroke-width="1"><g id="eventLoop.svg"><path id="Rectangle-1-Copy-5" fill="#FBF2EC" stroke="#DBAF88" stroke-width="2" d="M218 173h108v28H218z"/><text id="..." fill="#AF6E24" font-family="PTMono-Regular, PT Mono" font-size="14" font-weight="normal"><tspan x="258.9" y="189">...</tspan></text><path id="Rectangle-1-Copy-6" fill="#FBF2EC" stroke="#DBAF88" stroke-width="2" d="M218 90h108v28H218z"/><path id="Rectangle-1-Copy-8" fill="#FBF2EC" stroke="#DBAF88" stroke-width="2" d="M218 117h108v28H218z"/><text id="mousemove" fill="#AF6E24" font-family="PTMono-Regular, PT Mono" font-size="14" font-weight="normal"><tspan x="233.7" y="136">mousemove</tspan></text><path id="Rectangle-1-Copy-9" fill="#FBF2EC" stroke="#DBAF88" stroke-width="2" d="M218 145h108v28H218z"/><text id="script" fill="#AF6E24" font-family="PTMono-Regular, PT Mono" font-size="14" font-weight="normal"><tspan x="246.8" y="109">script</tspan></text><text id="event-loop" fill="#C06334" font-family="OpenSans-Regular, Open Sans" font-size="24" font-weight="normal"><tspan x="69.422" y="134">event</tspan> <tspan x="75.615" y="167">loop</tspan></text><text id="macrotask-queue" fill="#AF6E24" font-family="OpenSans-Regular, Open Sans" font-size="24" font-weight="normal"><tspan x="344.871" y="136">macrotask</tspan> <tspan x="367.951" y="169">queue</tspan></text><path id="Path" fill="#C06334" fill-rule="nonzero" d="M192 40c22.467 0 43.818 7.359 61.285 20.712l.622.479.143.122 8.961 8.422-4.584-14.61 3.817-1.197 6.869 21.895 1.064 3.392-3.452-.852-22.278-5.5.959-3.883 14.864 3.669-8.886-8.352-.55-.424c-16.564-12.656-36.757-19.698-58.036-19.87L192 44c-30.748 0-59.095 14.403-77.315 38.412l-.549.73-3.208-2.387C129.87 55.303 159.664 40 192 40z"/><path id="Path-Copy-2" fill="#C06334" fill-rule="nonzero" d="M269.882 208.148l2.823 2.834-.366.365a533.245 533.245 0 00-3.982 4.033l-.333.34c-9.922 10.12-14.79 14.544-22.017 19.272-15.185 9.934-34.01 15.688-51.594 15.688-25.222 0-47.144-6.827-64.077-19.673l-.589-.45-.089-.07-.08-.078-8.854-8.581 4.36 14.68-3.835 1.138-6.532-21.998-1.012-3.409 3.439.906 22.19 5.841-1.018 3.868-14.808-3.898 8.766 8.497.488.374c16.02 12.15 36.782 18.698 60.792 18.85l.859.003c16.796 0 34.862-5.522 49.404-15.035 6.911-4.521 11.624-8.806 21.35-18.725l.334-.34a633.126 633.126 0 013.46-3.511l.736-.736.185-.185z"/><text id="setTimeout" fill="#AF6E24" font-family="PTMono-Regular, PT Mono" font-size="14" font-weight="normal"><tspan x="230" y="164">setTimeout</tspan></text></g></g></svg>
